pitch-roulette/src/img/control_icon/mic.svg

<svg width="12" height="16" viewBox="0 0 12 16" fill="none" xmlns="http://www.w3.org/2000/svg">
<path d="M5.72407 11.5614C3.9367 11.5614 2.45869 10.1012 2.45869 8.2975V4.05443C2.45869 2.26787 3.91952 0.790527 5.72407 0.790527C7.51144 0.790527 8.98946 2.25069 8.98946 4.05443V8.2975C8.98946 10.0841 7.51144 11.5614 5.72407 11.5614Z" fill="white"/>
<path d="M5.6897 13.7431C2.61336 13.7431 0.104156 11.235 0.104156 8.16012C0.104156 7.90244 0.310384 7.69629 0.568178 7.69629C0.825972 7.69629 1.0322 7.90244 1.0322 8.16012C1.0322 10.7369 3.12892 12.8326 5.70686 12.8326C8.28481 12.8326 10.3815 10.7369 10.3815 8.16012C10.3815 7.90244 10.5878 7.69629 10.8456 7.69629C11.1034 7.69629 11.3096 7.90244 11.3096 8.16012C11.2752 11.235 8.76605 13.7431 5.6897 13.7431Z" fill="white"/>
<path d="M5.68972 15.8212C5.43192 15.8212 5.22565 15.615 5.22565 15.3573V13.2787C5.22565 13.0211 5.43192 12.8149 5.68972 12.8149C5.94751 12.8149 6.15374 13.0211 6.15374 13.2787V15.3573C6.15374 15.615 5.94751 15.8212 5.68972 15.8212Z" fill="white"/>
</svg>

<svg width="12" height="16" fill="none" xmlns="http://www.w3.org/2000/svg"><path d="M5.724 11.561A3.274 3.274 0 0 1 2.46 8.297V4.054A3.274 3.274 0 0 1 5.724.791 3.274 3.274 0 0 1 8.99 4.054v4.243c0 1.787-1.478 3.264-3.265 3.264z" fill="#fff"/><path d="M5.69 13.743c-3.077 0-5.586-2.508-5.586-5.583 0-.258.206-.464.464-.464s.464.206.464.464a4.678 4.678 0 0 0 4.675 4.673 4.678 4.678 0 0 0 4.675-4.673c0-.258.206-.464.464-.464.257 0 .464.206.464.464-.035 3.075-2.544 5.583-5.62 5.583z" fill="#fff"/><path d="M5.69 15.821a.462.462 0 0 1-.464-.464V13.28c0-.258.206-.464.464-.464s.464.206.464.464v2.078a.462.462 0 0 1-.464.464z" fill="#fff"/></svg>
